!!!COM:	Martini, Johannes
!!!CDT:	~1440///-~1497//
!!!OPR:	Missa In feuers hitz
!!!ONM:	2
!!!OTL:	Gloria
!!!AGN:	Mass; Gloria
!!!SCT:	Mar1007b
!!!SCA:	Mar1007b
!!!voices:	3
!!!voices-OPR:	3
**kern	**kern	**kern
*staff3	*staff2	*staff1
*Ivox	*Ivox	*Ivox
*I"Contra	*I"Tenor	*I"Superius
*I'C	*I'T	*I'S
*clefGv2	*clefGv2	*clefG2
*k[]	*k[]	*k[]
*M2/1	*M2/1	*M2/1
*met(C)	*met(C)	*met(C)
!!section: Et in terra pax
!!!OMD: Et in terra pax
=1-	=1-	=1-
1c	0r	1cc
2e\	.	2cc\
2f\	.	2cc\
=2	=2	=2
1g	0r	1b
1c	.	2cc\
.	.	2g/
=3	=3	=3
2c\	0r	2a/
2B\	.	1g
1A	.	.
.	.	2f#i/
=4	=4	=4
1G	0r	1g
1g	.	2r
.	.	[2b\
=5	=5	=5
2g\	0r	2b\]
2f\	.	2a/
1e	.	2cc\
.	.	2cc\
=6	=6	=6
2f\	0r	1dd
4e\	.	.
4d\	.	.
1c	.	1ee
=7	=7	=7
2d\	0r	2ff\
2c\	.	1ee
2.e\	.	.
.	.	4dd\
4f\	.	4cc\
=8	=8	=8
2g\	0r	2b\
2c\	.	1cc
1d	.	.
.	.	2b\
=9	=9	=9
1c	1c	1cc
1e	2c\	2r
.	2c\	2g/
=10	=10	=10
2c\	1e	1g
2c\	.	.
2A/	1f	2a/
2A/	.	2a/
=11	=11	=11
1G	1g	1b
1g	1c	1cc
=12	=12	=12
1f	1.d	1a
2g\	.	2b\
[2a\	2c\	2cc\
=13	=13	=13
4a\]	2B\	2dd\
4g\	.	.
1g	2G/	1ee
.	1A	.
2f#i\	.	4dd\
.	.	4cc\
=14	=14	=14
1g	1G	1b
1e	1g	1r
=15	=15	=15
2d\	2f\	0r
2g\	2e\	.
2f\	2d\	.
[2e\	2c\	.
=16	=16	=16
4e\]	1e	0r
4d\	.	.
1c	.	.
.	1d	.
2B\	.	.
=17	=17	=17
1c	1c	1gg
2d\	2r	2ff\
2c\	[2g\	2ee\
=18	=18	=18
2B-\	2g\]	2dd\
2A/	2a\	2cc\
2c\	2g\	2ee\
2d\	[2f\	[2dd\
=19	=19	=19
2B-i\	2f\]	4dd\]
.	.	4cc\
2c\	2e\	1cc
1G	1d	.
.	.	2b\
=20	=20	=20
2r	1c	0cc
2c\	.	.
2e\	2r	.
2e\	2c\	.
=21	=21	=21
1c	2e\	2r
.	2e\	2cc\
2r	1c	2ee\
[2A/	.	2ee\
=22	=22	=22
2A/]	1e	2cc\
2c\	.	2cc\
2B\	2d\	2dd\
2G/	[2g\	2b\
=23	=23	=23
1d	2g\]	1a
.	2f#i\	.
1G	1g	1g
=24	=24	=24
1f	1d	2r
.	.	2a/
2f\	2d\	2b\
2f\	2d\	2b\
=25	=25	=25
1g	1c	2cc\
.	.	2cc\
1f	1d	2a/
.	.	[2b\
=26	=26	=26
2d\	2B\	4b\]
.	.	4a/
2e\	2c\	1g
2.c\	1A	.
.	.	2f#i/
4B\	.	.
=27	=27	=27
1d	0G	1g
1e	.	2r
.	.	2g/
=28	=28	=28
2f\	2r	2a/
2d\	2G/	2b\
2c\	2A/	2cc\
2r	2B\	2g/
=29	=29	=29
2A/	2c\	2cc\
2B\	2G/	2dd\
[1A	2c\	1ee
.	2d\	.
=30	=30	=30
2A/]	1e	2cc\
1c	.	2cc\
.	2d\	2ff\
2B\	2d\	2ff\
=31	=31	=31
1c	2c\	2ee\
.	2c\	4dd\
.	.	4cc\
1G	1g	1b
=32	=32	=32
2d\	1f	2a/
2.B-\	.	2.dd\
.	2f\	.
4c\	.	4cc\
2d\	2f\	2a/
=33	=33	=33
2G/	1g	2b\
1c	.	1g
.	1c	.
2e\	.	2cc\
=34	=34	=34
2d\	2B\	2dd\
1c	2c\	2.ee\
.	2e\	.
.	.	4dd\
2F/	2f\	[2cc\
=35	=35	=35
1G	1d	2cc\]
.	.	2b\
1g	1c	1cc
=36	=36	=36
2a\	1r	0r
1g	.	.
.	1g	.
2e\	.	.
=37	=37	=37
2f\	2a\	1r
2g\	1g	.
1e	.	1g
.	2e\	.
=38	=38	=38
2d\	2f\	2a/
2G/	2g\	1g
1c	1e	.
.	.	2e/
=39	=39	=39
2d\	1r	2f/
2c\	.	2g/
2g\	1c	1e
[2a\	.	.
=40	=40	=40
4a\]	2B\	1r
4g\	.	.
2g\	2G/	.
2r	2A/	1cc
2c\	2A/	.
=41	=41	=41
2d\	1G	2b\
1g	.	2g/
.	2r	2a/
2f#i\	2d\	2a/
=42	=42	=42
1g	2e\	1g
.	2f\	.
2G/	2g\	2r
2B\	2g\	2dd\
=43	=43	=43
2A/	1c	2ee\
2c\	.	2ff\
2B\	2r	2gg\
2d\	2G/	2gg\
=44	=44	=44
2c\	2A/	1cc
2.e\	1c	.
.	.	2r
4f\	.	.
2g\	2B\	2g/
=45	=45	=45
2e\	1c	2a/
2c\	.	1cc
1d	1r	.
.	.	2b\
=46	=46	=46
2c\	1r	1cc
4B\	.	.
4A/	.	.
2G/	1e	1r
[2c\	.	.
=47	=47	=47
2c\]	1d	1r
2B\	.	.
1c	1c	1ee
=48	=48	=48
2B-\	1f	1dd
2d\	.	.
1A	2e\	2cc\
.	2c\	2cc\
=49	=49	=49
1r	2d\	1ff
.	4c\	.
.	4B\	.
1a	1A	2ee\
.	.	2cc\
=50	=50	=50
2b\	1G	2dd\
1g	.	4cc\
.	.	4b\
.	1r	1a
2f#i\	.	.
=51	=51	=51
1g	1c	1g
1G	2d\	1b
.	[2e\	.
=52	=52	=52
2c\	2e\]	2cc\
2B-\	2f\	1dd
1G	1g	.
.	.	2dd\
=53	=53	=53
1.g	1c	2ee\
.	.	4dd\
.	.	4cc\
.	2r	1b
[2f\	[2d\	.
=54	=54	=54
1f]	2d\]	2r
.	2d\	1dd
1g	2G/	.
.	2B\	2dd\
=55	=55	=55
2e\	2c\	2g/
2d\	2d\	2b\
1c	1e	2cc\
.	.	2dd\
=56	=56	=56
2r	1c	1ee
1c	.	.
.	2r	1cc
[2A/	[2e\	.
=57	=57	=57
2A/]	2e\]	2r
2F/	2f\	2cc\
1G	2d\	2b\
.	[2g\	2b\
=58	=58	=58
1c	2g\]	2a/
.	2f#i\	2a/
2G/	[1g	1g
[2c\	.	.
=59	=59	=59
4c\]	1g]	2r
4B\	.	.
2c\	.	2e/
2d\	1r	2f/
2B\	.	2d/
=60	=60	=60
2c\	2r	1e
2g\	2e\	.
2a\	2f\	2d/
2f\	2d\	2d/
=61	=61	=61
2g\	1e	1c
1c	.	.
.	1d	1r
2B\	.	.
=62	=62	=62
2c\	1c	2r
2e\	.	2cc\
2e\	1r	2cc\
2f\	.	2dd\
=63	=63	=63
2.g\	2r	2.ee\
.	2c\	.
4f\	.	4dd\
1e	2c\	2cc\
.	2d\	2r
=64	=64	=64
2r	2.e\	2g/
2c\	.	2a/
.	4d\	.
2c\	2c\	2.cc\
2d\	2r	.
.	.	4b\
=65	=65	=65
2e\	2c\	4a/
.	.	4g/
1d	2B\	1g
.	1A	.
2c\	.	2f#i/
=66	=66	=66
2d\	1G	1g
2B\	.	.
2A/	1r	2f/
2c\	.	2e/
=67	=67	=67
2d\	0r	2d/
2.e\	.	2c/
.	.	1e
4d\	.	.
[2c\	.	.
=68	=68	=68
2c\]	1r	1d
2B\	.	.
1c	1g	1c
=69	=69	=69
2d\	2f\	2r
2c\	2e\	2cc\
2B\	2d\	2dd\
2A/	2c\	[2ee\
=70	=70	=70
1c	1e	4ee\]
.	.	4dd\
.	.	1cc
1G	1d	.
.	.	2b\
=71	=71	=71
0gl	0cl	0ccl
==	==	==
*-	*-	*-
!!!RDF**kern: l=long note in original notation
!!!RDF**kern: i=editorial accidental
!!!ENC:	Chris Gage 10-02-2014
!!!END:	2015/03/07/
!!!EED:	Jesse Rodin
!!!EEV:	2015/03/09/
!!!ONB:	Translated from MusicXML and edited on 2015/03/09/ by Craig Sapp
!!muse2ps: T^@{OPR}^u^@{ONM}{. }@{OTL}^C^@{COM}^i2I150v95,95,150Q16
